Numix-GalliumOS/64/mimetypes/application-x-compressed-tar.svg

<svg xmlns="http://www.w3.org/2000/svg" xmlns:xlink="http://www.w3.org/1999/xlink" width="64px" height="64px" viewBox="0 0 64 64" version="1.1">
<g id="surface1">
<path style=" stroke:none;fill-rule:nonzero;fill:rgb(75.686275%,58.431373%,32.54902%);fill-opacity:1;" d="M 10.671875 0 C 9.296875 0 8 1.355469 8 2.789062 L 8 61.210938 C 8 62.566406 9.375 64 10.671875 64 L 53.328125 64 C 54.625 64 56 62.566406 56 61.210938 L 56 18 L 38 0 Z M 10.671875 0 "/>
<path style=" stroke:none;fill-rule:nonzero;fill:rgb(0%,0%,0%);fill-opacity:0.196078;" d="M 8 48 L 8 61.335938 C 8 62.632812 9.375 64 10.664062 64 L 53.335938 64 C 54.625 64 56 62.632812 56 61.335938 L 56 48 Z M 8 48 "/>
<path style=" stroke:none;fill-rule:nonzero;fill:rgb(100%,100%,100%);fill-opacity:1;" d="M 26.878906 51.195312 L 26.878906 52.976562 L 23.667969 52.976562 L 23.667969 61.988281 L 21.226562 61.988281 L 21.226562 52.976562 L 18.007812 52.976562 L 18.007812 51.195312 L 26.878906 51.195312 "/>
<path style=" stroke:none;fill-rule:nonzero;fill:rgb(0%,0%,0%);fill-opacity:0.196078;" d="M 42 18 L 56 32 L 56 18 Z M 42 18 "/>
<path style=" stroke:none;fill-rule:nonzero;fill:rgb(100%,100%,100%);fill-opacity:1;" d="M 33.523438 52.820312 C 32.945312 52.820312 32.457031 52.910156 32.0625 53.101562 C 31.671875 53.28125 31.34375 53.546875 31.078125 53.882812 C 30.832031 54.207031 30.640625 54.601562 30.527344 55.0625 C 30.417969 55.519531 30.371094 56.03125 30.371094 56.582031 C 30.371094 57.878906 30.601562 58.828125 31.0625 59.445312 C 31.515625 60.046875 32.195312 60.355469 33.09375 60.355469 C 33.234375 60.355469 33.390625 60.34375 33.5625 60.335938 C 33.738281 60.320312 33.894531 60.304688 34.035156 60.28125 L 34.035156 56.34375 L 36.460938 56.34375 L 36.460938 61.730469 C 36.171875 61.824219 35.71875 61.929688 35.097656 62.046875 C 34.496094 62.160156 33.761719 62.21875 32.894531 62.21875 C 32.128906 62.21875 31.441406 62.101562 30.824219 61.871094 C 30.222656 61.625 29.703125 61.269531 29.265625 60.808594 C 28.835938 60.328125 28.496094 59.742188 28.257812 59.042969 C 28.027344 58.332031 27.902344 57.515625 27.902344 56.582031 C 27.902344 55.667969 28.042969 54.859375 28.324219 54.164062 C 28.59375 53.453125 28.96875 52.859375 29.445312 52.382812 C 29.917969 51.902344 30.476562 51.546875 31.121094 51.316406 C 31.765625 51.070312 32.449219 50.953125 33.191406 50.953125 C 33.664062 50.953125 34.082031 50.988281 34.445312 51.054688 C 34.835938 51.109375 35.15625 51.183594 35.4375 51.269531 C 35.710938 51.351562 35.933594 51.433594 36.105469 51.523438 C 36.285156 51.621094 36.425781 51.6875 36.519531 51.738281 L 35.890625 53.445312 C 35.601562 53.28125 35.246094 53.140625 34.828125 53.007812 C 34.40625 52.886719 33.96875 52.820312 33.523438 52.820312 "/>
<path style=" stroke:none;fill-rule:nonzero;fill:rgb(100%,100%,100%);fill-opacity:0.392157;" d="M 38 0 L 55.984375 18 L 40.757812 18 C 39.410156 18 38 16.574219 38 15.226562 Z M 38 0 "/>
<path style=" stroke:none;fill-rule:nonzero;fill:rgb(100%,100%,100%);fill-opacity:1;" d="M 46 52.695312 C 45.4375 53.464844 44.917969 54.179688 44.441406 54.859375 C 43.96875 55.535156 43.53125 56.179688 43.121094 56.796875 C 42.714844 57.398438 42.328125 57.984375 41.964844 58.554688 C 41.609375 59.117188 41.261719 59.667969 40.933594 60.214844 L 46.179688 60.214844 L 46.179688 61.988281 L 38.136719 61.988281 L 38.136719 60.75 C 38.425781 60.253906 38.738281 59.726562 39.058594 59.183594 C 39.390625 58.628906 39.761719 58.035156 40.164062 57.40625 C 40.578125 56.78125 41.015625 56.09375 41.484375 55.359375 C 41.972656 54.636719 42.507812 53.835938 43.085938 52.976562 L 38.390625 52.976562 L 38.390625 51.195312 L 46 51.195312 L 46 52.695312 "/>
<path style=" stroke:none;fill-rule:evenodd;fill:rgb(97.647059%,97.647059%,97.647059%);fill-opacity:1;" d="M 18 0 L 24 0 L 24 6 L 18 6 Z M 18 0 "/>
<path style=" stroke:none;fill-rule:evenodd;fill:rgb(97.647059%,97.647059%,97.647059%);fill-opacity:1;" d="M 24 6 L 30 6 L 30 12 L 24 12 Z M 24 6 "/>
<path style=" stroke:none;fill-rule:evenodd;fill:rgb(97.647059%,97.647059%,97.647059%);fill-opacity:1;" d="M 18 12 L 24 12 L 24 18 L 18 18 Z M 18 12 "/>
<path style=" stroke:none;fill-rule:evenodd;fill:rgb(97.647059%,97.647059%,97.647059%);fill-opacity:1;" d="M 24 18 L 30 18 L 30 24 L 24 24 Z M 24 18 "/>
<path style=" stroke:none;fill-rule:evenodd;fill:rgb(97.647059%,97.647059%,97.647059%);fill-opacity:1;" d="M 18 24 L 24 24 L 24 30 L 18 30 Z M 18 24 "/>
<path style=" stroke:none;fill-rule:evenodd;fill:rgb(97.647059%,97.647059%,97.647059%);fill-opacity:1;" d="M 18 32 L 30 32 L 30 44 L 18 44 Z M 18 32 "/>
</g>
</svg>

<svg xmlns="http://www.w3.org/2000/svg" viewBox="0 0 64 64">
 <g>
  <path d="m 10.672 0 c -1.375 0 -2.672 1.355 -2.672 2.789 l 0 58.42 c 0 1.355 1.375 2.789 2.672 2.789 l 42.656 0 c 1.297 0 2.672 -1.434 2.672 -2.789 l 0 -43.21 l -18 -18 m -27.328 0" style="fill:#c19553;fill-opacity:1;stroke:none;fill-rule:nonzero"/>
  <path d="m 8 48 l 0 13.336 c 0 1.297 1.375 2.664 2.664 2.664 l 42.672 0 c 1.289 0 2.664 -1.367 2.664 -2.664 l 0 -13.336 m -48 0" style="fill:#000;fill-opacity:0.196;stroke:none;fill-rule:nonzero"/>
  <path d="m 26.879 51.2 l 0 1.781 l -3.211 0 l 0 9.01 l -2.441 0 l 0 -9.01 l -3.219 0 l 0 -1.781 l 8.871 0" style="fill:#fff;fill-opacity:1;stroke:none;fill-rule:nonzero"/>
  <path d="m 42 18 l 14 14 l 0 -14 m -14 0" style="fill:#000;fill-opacity:0.196;stroke:none;fill-rule:nonzero"/>
  <path d="m 33.523 52.82 c -0.578 0 -1.066 0.09 -1.461 0.281 c -0.391 0.18 -0.719 0.445 -0.984 0.781 c -0.246 0.324 -0.438 0.719 -0.551 1.18 c -0.109 0.457 -0.156 0.969 -0.156 1.52 c 0 1.297 0.23 2.246 0.691 2.863 c 0.453 0.602 1.133 0.91 2.031 0.91 c 0.141 0 0.297 -0.012 0.469 -0.02 c 0.176 -0.016 0.332 -0.031 0.473 -0.055 l 0 -3.938 l 2.426 0 l 0 5.387 c -0.289 0.094 -0.742 0.199 -1.363 0.316 c -0.602 0.113 -1.336 0.172 -2.203 0.172 c -0.766 0 -1.453 -0.117 -2.07 -0.348 c -0.602 -0.246 -1.121 -0.602 -1.559 -1.063 c -0.43 -0.48 -0.77 -1.066 -1.01 -1.766 c -0.23 -0.711 -0.355 -1.527 -0.355 -2.461 c 0 -0.914 0.141 -1.723 0.422 -2.418 c 0.27 -0.711 0.645 -1.305 1.121 -1.781 c 0.473 -0.48 1.031 -0.836 1.676 -1.066 c 0.645 -0.246 1.328 -0.363 2.07 -0.363 c 0.473 0 0.891 0.035 1.254 0.102 c 0.391 0.055 0.711 0.129 0.992 0.215 c 0.273 0.082 0.496 0.164 0.668 0.254 c 0.18 0.098 0.32 0.164 0.414 0.215 l -0.629 1.707 c -0.289 -0.164 -0.645 -0.305 -1.063 -0.438 c -0.422 -0.121 -0.859 -0.188 -1.305 -0.188" style="fill:#fff;fill-opacity:1;stroke:none;fill-rule:nonzero"/>
  <path d="m 38 0 l 17.984 18 l -15.227 0 c -1.348 0 -2.758 -1.426 -2.758 -2.773 m 0 -15.227" style="fill:#fff;fill-opacity:0.392;stroke:none;fill-rule:nonzero"/>
  <path d="m 46 52.695 c -0.563 0.77 -1.082 1.484 -1.559 2.164 c -0.473 0.676 -0.91 1.32 -1.32 1.938 c -0.406 0.602 -0.793 1.188 -1.156 1.758 c -0.355 0.563 -0.703 1.113 -1.031 1.66 l 5.246 0 l 0 1.773 l -8.04 0 l 0 -1.238 c 0.289 -0.496 0.602 -1.023 0.922 -1.566 c 0.332 -0.555 0.703 -1.148 1.105 -1.777 c 0.414 -0.625 0.852 -1.313 1.32 -2.047 c 0.488 -0.723 1.023 -1.523 1.602 -2.383 l -4.695 0 l 0 -1.781 l 7.609 0 l 0 1.5" style="fill:#fff;fill-opacity:1;stroke:none;fill-rule:nonzero"/>
  <path d="m 18 0 l 6 0 l 0 6 l -6 0 m 0 -6" style="fill:#f9f9f9;fill-opacity:1;stroke:none;fill-rule:evenodd"/>
  <path d="m 24 6 l 6 0 l 0 6 l -6 0 m 0 -6" style="fill:#f9f9f9;fill-opacity:1;stroke:none;fill-rule:evenodd"/>
  <path d="m 18 12 l 6 0 l 0 6 l -6 0 m 0 -6" style="fill:#f9f9f9;fill-opacity:1;stroke:none;fill-rule:evenodd"/>
  <path d="m 24 18 l 6 0 l 0 6 l -6 0 m 0 -6" style="fill:#f9f9f9;fill-opacity:1;stroke:none;fill-rule:evenodd"/>
  <path d="m 18 24 l 6 0 l 0 6 l -6 0 m 0 -6" style="fill:#f9f9f9;fill-opacity:1;stroke:none;fill-rule:evenodd"/>
  <path d="m 18 32 l 12 0 l 0 12 l -12 0 m 0 -12" style="fill:#f9f9f9;fill-opacity:1;stroke:none;fill-rule:evenodd"/>
 </g>
</svg>
